flaticon/interaction/stopwatch-15.svg

<svg xmlns="http://www.w3.org/2000/svg" width="32" height="32" viewBox="0 0 24 24">
    <path d="M20.878906 19.207031C20.660156 19.164062 20.453125 19.304688 20.40625 19.519531 19.960938 21.722656 18.230469 23.199219 16.097656 23.199219 14.089844 23.199219 12.320312 21.878906 11.71875 20L13.601562 20 13.601562 19.199219 10.398438 19.199219 10.398438 22.398438 11.199219 22.398438 11.199219 20.859375C12.066406 22.734375 13.964844 24 16.097656 24 18.621094 24 20.667969 22.261719 21.191406 19.679688 21.234375 19.460938 21.097656 19.253906 20.878906 19.207031zM20.800781 16.125C19.898438 14.339844 18.117188 13.199219 16.097656 13.199219 13.65625 13.199219 11.484375 14.796875 10.816406 17.089844 10.753906 17.300781 10.875 17.523438 11.089844 17.585938 11.300781 17.644531 11.523438 17.523438 11.585938 17.3125 12.144531 15.394531 14.042969 14 16.097656 14 17.925781 14 19.523438 15.105469 20.230469 16.800781L18.398438 16.800781 18.398438 17.601562 21.601562 17.601562 21.601562 14.398438 20.800781 14.398438zM11.421875 13.011719C11.667969 13.351562 12.046875 13.5625 12.464844 13.59375 12.5 13.597656 12.539062 13.601562 12.574219 13.601562 12.953125 13.601562 13.3125 13.453125 13.582031 13.183594 13.878906 12.886719 14.027344 12.480469 13.996094 12.0625 13.964844 11.648438 13.75 11.269531 13.410156 11.019531L8.234375 7.277344C8.074219 7.160156 7.855469 7.179688 7.71875 7.316406 7.578125 7.457031 7.5625 7.675781 7.675781 7.835938zM12.941406 11.667969C13.089844 11.777344 13.183594 11.945312 13.199219 12.125 13.210938 12.308594 13.144531 12.488281 13.015625 12.617188 12.886719 12.746094 12.707031 12.808594 12.527344 12.796875 12.34375 12.785156 12.175781 12.691406 12.070312 12.542969L9.785156 9.386719zM12.941406 11.667969"/>
    <path d="M12 0C11.777344 0 11.601562.179688 11.601562.398438L11.601562 5.714844C11.601562 5.9375 11.777344 6.117188 12 6.117188 12.222656 6.117188 12.398438 5.9375 12.398438 5.714844L12.398438.808594C18.390625 1.019531 23.199219 5.957031 23.199219 12 23.199219 13.386719 22.945312 14.746094 22.445312 16.039062 22.367188 16.242188 22.46875 16.476562 22.675781 16.554688 22.722656 16.574219 22.773438 16.582031 22.820312 16.582031 22.980469 16.582031 23.132812 16.484375 23.191406 16.324219 23.726562 14.941406 24 13.484375 24 12 24 5.382812 18.617188 0 12 0zM9.296875 22.871094C4.292969 21.632812.800781 17.160156.800781 12 .800781 9.015625 1.960938 6.207031 4.066406 4.09375 4.222656 3.9375 4.222656 3.683594 4.066406 3.527344 3.910156 3.371094 3.65625 3.375 3.5 3.527344 1.242188 5.792969 0 8.804688 0 12 0 17.53125 3.742188 22.320312 9.105469 23.648438 9.136719 23.65625 9.167969 23.660156 9.203125 23.660156 9.378906 23.660156 9.542969 23.539062 9.589844 23.355469 9.640625 23.140625 9.511719 22.925781 9.296875 22.871094zM9.296875 22.871094"/>
</svg>

<svg xmlns="http://www.w3.org/2000/svg" width="32" height="32" viewBox="0 0 24 24">
    <path d="M20.879 19.207a.403.403 0 0 0-.473.313c-.445 2.203-2.176 3.68-4.308 3.68a4.617 4.617 0 0 1-4.38-3.2h1.884v-.8h-3.204v3.198h.801V20.86A5.414 5.414 0 0 0 16.098 24c2.523 0 4.57-1.738 5.093-4.32a.4.4 0 0 0-.312-.473zm0 0M20.8 16.125c-.902-1.785-2.683-2.926-4.702-2.926-2.442 0-4.614 1.598-5.282 3.89a.399.399 0 0 0 .274.497.405.405 0 0 0 .496-.273C12.145 15.395 14.043 14 16.098 14c1.828 0 3.425 1.105 4.132 2.8h-1.832v.802h3.204v-3.204H20.8zm0 0M11.422 13.012c.246.34.625.55 1.043.582.035.004.074.008.11.008a1.427 1.427 0 0 0 .836-2.582L8.233 7.277a.397.397 0 0 0-.515.04.403.403 0 0 0-.043.519zm1.52-1.344a.64.64 0 0 1 .257.457.638.638 0 0 1-.183.492.632.632 0 0 1-.489.18.608.608 0 0 1-.457-.254L9.785 9.387zm0 0"/>
    <path d="M12 0a.398.398 0 0 0-.398.398v5.317a.398.398 0 1 0 .796 0V.809C18.391 1.019 23.2 5.957 23.2 12c0 1.387-.254 2.746-.754 4.04a.4.4 0 0 0 .746.284c.536-1.383.809-2.84.809-4.324 0-6.617-5.383-12-12-12zm0 0M9.297 22.871A11.173 11.173 0 0 1 .8 12c0-2.984 1.16-5.793 3.265-7.906a.4.4 0 0 0-.566-.567A11.93 11.93 0 0 0 0 12c0 5.531 3.742 10.32 9.105 11.648a.403.403 0 0 0 .484-.293.403.403 0 0 0-.292-.484zm0 0"/>
</svg>
